packages/icons/src/svg/32/machine-learning-model.svg

<?xml version="1.0" encoding="UTF-8"?>
<svg id="icon" xmlns="http://www.w3.org/2000/svg" width="32" height="32" viewBox="0 0 32 32">
  <defs>
    <style>
      .cls-1 {
        fill: none;
      }

      .cls-1, .cls-2 {
        stroke-width: 0px;
      }
    </style>
  </defs>
  <path class="cls-2" d="m27,19c1.6543,0,3-1.3457,3-3s-1.3457-3-3-3c-1.302,0-2.4016.8384-2.8157,2h-5.7703l7.3008-7.3008c.3911.1875.8235.3008,1.2852.3008,1.6543,0,3-1.3457,3-3s-1.3457-3-3-3-3,1.3457-3,3c0,.4619.1135.894.3005,1.2852l-8.3005,8.3008v-6.5859c0-1.1025.897-2,2-2h2v-2h-2c-1.2002,0-2.2661.5425-3,1.3823-.7339-.8398-1.7998-1.3823-3-1.3823h-1c-4.9624,0-9,4.0371-9,9v6c0,4.9629,4.0376,9,9,9h1c1.2002,0,2.2661-.5425,3-1.3823.7339.8398,1.7998,1.3823,3,1.3823h2v-2h-2c-1.103,0-2-.8975-2-2v-6.5859l8.3005,8.3008c-.187.3911-.3005.8232-.3005,1.2852,0,1.6543,1.3457,3,3,3s3-1.3457,3-3-1.3457-3-3-3c-.4617,0-.894.1133-1.2852.3008l-7.3008-7.3008h5.7703c.4141,1.1616,1.5137,2,2.8157,2Zm0-4c.5513,0,1,.4482,1,1s-.4487,1-1,1-1-.4482-1-1,.4487-1,1-1Zm0-11c.5515,0,1,.4487,1,1s-.4485,1-1,1-1-.4487-1-1,.4485-1,1-1Zm-13,8h-2v2h2v4h-2c-1.6543,0-3,1.3457-3,3v2h2v-2c0-.5518.4487-1,1-1h2v4c0,1.1025-.897,2-2,2h-1c-3.5195,0-6.4324-2.6133-6.9202-6h1.9202v-2h-2v-4h3c1.6543,0,3-1.3457,3-3v-2h-2v2c0,.5518-.4487,1-1,1h-2.9202c.4878-3.3867,3.4006-6,6.9202-6h1c1.103,0,2,.8975,2,2v4Zm14,15c0,.5513-.4485,1-1,1s-1-.4487-1-1,.4485-1,1-1,1,.4487,1,1Z"/>
  <rect id="_Transparent_Rectangle_" data-name="&amp;lt;Transparent Rectangle&amp;gt;" class="cls-1" width="32" height="32"/>
</svg>

<svg id="icon" xmlns="http://www.w3.org/2000/svg" width="32" height="32" viewBox="0 0 32 32">
  <defs>
    <style>
      .cls-1 {
        fill: none;
      }
    </style>
  </defs>
  <path d="M27,24a2.9609,2.9609,0,0,0-1.2854.3008L21.4141,20H18v2h2.5859l3.7146,3.7148A2.9665,2.9665,0,0,0,24,27a3,3,0,1,0,3-3Zm0,4a1,1,0,1,1,1-1A1.0009,1.0009,0,0,1,27,28Z"/>
  <path d="M27,13a2.9948,2.9948,0,0,0-2.8157,2H18v2h6.1843A2.9947,2.9947,0,1,0,27,13Zm0,4a1,1,0,1,1,1-1A1.0009,1.0009,0,0,1,27,17Z"/>
  <path d="M27,2a3.0033,3.0033,0,0,0-3,3,2.9657,2.9657,0,0,0,.3481,1.373L20.5957,10H18v2h3.4043l4.3989-4.2524A2.9987,2.9987,0,1,0,27,2Zm0,4a1,1,0,1,1,1-1A1.0009,1.0009,0,0,1,27,6Z"/>
  <path d="M18,6h2V4H18a3.9756,3.9756,0,0,0-3,1.3823A3.9756,3.9756,0,0,0,12,4H11a9.01,9.01,0,0,0-9,9v6a9.01,9.01,0,0,0,9,9h1a3.9756,3.9756,0,0,0,3-1.3823A3.9756,3.9756,0,0,0,18,28h2V26H18a2.0023,2.0023,0,0,1-2-2V8A2.0023,2.0023,0,0,1,18,6ZM12,26H11a7.0047,7.0047,0,0,1-6.92-6H6V18H4V14H7a3.0033,3.0033,0,0,0,3-3V9H8v2a1.0009,1.0009,0,0,1-1,1H4.08A7.0047,7.0047,0,0,1,11,6h1a2.0023,2.0023,0,0,1,2,2v4H12v2h2v4H12a3.0033,3.0033,0,0,0-3,3v2h2V21a1.0009,1.0009,0,0,1,1-1h2v4A2.0023,2.0023,0,0,1,12,26Z"/>
  <rect id="_Transparent_Rectangle_" data-name="&lt;Transparent Rectangle&gt;" class="cls-1" width="32" height="32"/>
</svg>
